_site/images/homepage/logos/azure.svg

<svg fill="none" height="62" viewBox="0 0 85 62" width="85" xmlns="http://www.w3.org/2000/svg"><path clip-rule="evenodd" d="m31.8235 21.006 13.8556-12.006-15.0185 33.2118h-10.6606zm9.7848 7.4568 5.9132-16.6538 19.4781 34.6643h-36.049l21.9957-3.7764z" fill="#0072c6" fill-rule="evenodd"/></svg>

<svg width="85" height="62" viewBox="0 0 85 62" fill="none" xmlns="http://www.w3.org/2000/svg">
<path fill-rule="evenodd" clip-rule="evenodd" d="M31.8235 21.006L45.6791 9L30.6606 42.2118H20L31.8235 21.006ZM41.6083 28.4628L47.5215 11.809L66.9996 46.4733H30.9506L52.9463 42.6969L41.6083 28.4628Z" fill="#0072C6"/>
</svg>
